X:1
T:misericorde du Seigneur a jamais je la chanterai 
%%score { ( 1 2 ) | ( 3 4 ) }
L:1/8
Q:1/4=90
M:4/4
K:Ab
V:1 treble nm="Piano" snm="Pno"
V:2 treble 
V:3 bass 
V:4 bass 
V:1
"Fm" AA A A"C" G2 G2 |"Fm" A2 A2"Eb" B4 |"Ab" c2 c c"Eb" e2 B2 |"Fm" A2"C" G2"Fm" F4 |] %4
w: la mi se ri cor de|du sei gneur|a ja mais je la|chan te rai|
V:2
 FF F F =E2 E2 | F2 F2 G4 | A2 A A G2 G2 | F2 =E2 F4 |] %4
V:3
 C C C C C2 C2 | C2 C2 _E4 | E2 E E E2 E2 | C2 C2 C4 |] %4
V:4
 F, F, F, F, C,2 C,2 | F,2 F,2 _E,4 | A,2 A, A, E,2 E,2 | F,2 C,2 F,4 |] %4

